assets/icons/successPopupIcon.svg

<svg width="158" height="114" viewBox="0 0 158 114" fill="none" xmlns="http://www.w3.org/2000/svg">
<circle cx="84" cy="54" r="50" fill="#FFBA4D" stroke="white" stroke-width="8"/>
<circle cx="5.5" cy="59.5" r="5.5" fill="#FFBA4D"/>
<circle cx="121.5" cy="108.5" r="5.5" fill="#FFBA4D"/>
<circle cx="148.5" cy="49.5" r="9.5" fill="#FFBA4D"/>
<circle cx="32.5" cy="97.5" r="8.5" fill="#FFBA4D"/>
<circle cx="2.5" cy="2.5" r="2.5" transform="matrix(-1 0 0 1 146 72)" fill="#FFBA4D"/>
<circle cx="2.5" cy="2.5" r="2.5" transform="matrix(-1 0 0 1 29 38)" fill="#FFBA4D"/>
<path d="M79.2419 73.5727L79.0266 73.2059C75.7381 67.603 66.9995 55.7128 66.9112 55.5934L66.7852 55.4221L69.7624 52.4798L79.1866 59.0605C85.1203 51.3606 90.6561 46.0719 94.2671 42.9836C98.2172 39.6052 100.788 38.0499 100.814 38.035L100.873 38H105.923L105.441 38.4296C93.034 49.4802 79.5865 72.9671 79.4526 73.2031L79.2419 73.5727Z" fill="#E23E3E"/>
</svg>

<svg width="158" height="114" viewBox="0 0 158 114" fill="none" xmlns="http://www.w3.org/2000/svg">
    <circle cx="84" cy="54" r="50" fill="url(#myi66nplqa)" stroke="#fff" stroke-width="8"/>
    <circle cx="5.5" cy="59.5" r="5.5" fill="url(#n3x6rtedob)"/>
    <circle cx="121.5" cy="108.5" r="5.5" fill="url(#dtu2z9jfrc)"/>
    <circle cx="148.5" cy="49.5" r="9.5" fill="url(#ygmqwn4ndd)"/>
    <circle cx="32.5" cy="97.5" r="8.5" fill="url(#3f9cvu51ae)"/>
    <circle cx="2.5" cy="2.5" r="2.5" transform="matrix(-1 0 0 1 146 72)" fill="url(#tm6kbh93rf)"/>
    <circle cx="2.5" cy="2.5" r="2.5" transform="matrix(-1 0 0 1 29 38)" fill="url(#7cvps6q10g)"/>
    <path d="m79.242 73.573-.215-.367c-3.289-5.603-12.028-17.493-12.116-17.613l-.126-.17 2.977-2.943 9.425 6.58c5.933-7.7 11.47-12.988 15.08-16.076 3.95-3.379 6.521-4.934 6.547-4.949l.059-.035h5.05l-.482.43C93.034 49.48 79.586 72.967 79.453 73.203l-.211.37z" fill="#15B56E"/>
    <defs>
        <linearGradient id="myi66nplqa" x1="38" y1="2.351" x2="144.205" y2="18.806" gradientUnits="userSpaceOnUse">
            <stop stop-color="#53E88B"/>
            <stop offset="1" stop-color="#15BE77"/>
        </linearGradient>
        <linearGradient id="n3x6rtedob" x1="0" y1="53.325" x2="12.698" y2="55.292" gradientUnits="userSpaceOnUse">
            <stop stop-color="#53E88B"/>
            <stop offset="1" stop-color="#15BE77"/>
        </linearGradient>
        <linearGradient id="dtu2z9jfrc" x1="116" y1="102.325" x2="128.698" y2="104.292" gradientUnits="userSpaceOnUse">
            <stop stop-color="#53E88B"/>
            <stop offset="1" stop-color="#15BE77"/>
        </linearGradient>
        <linearGradient id="ygmqwn4ndd" x1="139" y1="38.833" x2="160.934" y2="42.232" gradientUnits="userSpaceOnUse">
            <stop stop-color="#53E88B"/>
            <stop offset="1" stop-color="#15BE77"/>
        </linearGradient>
        <linearGradient id="3f9cvu51ae" x1="24" y1="87.956" x2="43.625" y2="90.997" gradientUnits="userSpaceOnUse">
            <stop stop-color="#53E88B"/>
            <stop offset="1" stop-color="#15BE77"/>
        </linearGradient>
        <linearGradient id="tm6kbh93rf" x1="0" y1="-.307" x2="5.772" y2=".587" gradientUnits="userSpaceOnUse">
            <stop stop-color="#53E88B"/>
            <stop offset="1" stop-color="#15BE77"/>
        </linearGradient>
        <linearGradient id="7cvps6q10g" x1="0" y1="-.307" x2="5.772" y2=".587" gradientUnits="userSpaceOnUse">
            <stop stop-color="#53E88B"/>
            <stop offset="1" stop-color="#15BE77"/>
        </linearGradient>
    </defs>
</svg>
